!!!COM: Palestrina, Giovanni Perluigi da
!!!OPR: Missa Eripe me de inimicis
!!!OMD: Sanctus
!!!OTL: First Section
**kern	**kern	**kern	**kern	**kern
*Ibass	*Itenor	*Itenor	*Icalto	*Icant
!Bassus	!Tenor 2	!Tenor 1	!Altus	!Cantus
*clefF4	*clefGv2	*clefGv2	*clefG2	*clefG2
*k[]	*k[]	*k[]	*k[]	*k[]
*D:dor	*D:dor	*D:dor	*D:dor	*D:dor
*M4/2	*M4/2	*M4/2	*M4/2	*M4/2
=1	=1	=1	=1	=1
0r	0r	0A	0r	0r
=2	=2	=2	=2	=2
0r	0r	1d	0r	0a
.	.	2r	.	.
.	.	2d	.	.
=3	=3	=3	=3	=3
0r	0r	2f	0d	1dd
.	.	2d	.	.
.	.	2.f	.	2r
.	.	.	.	2dd
.	.	4e	.	.
=4	=4	=4	=4	=4
0r	0r	1.d	1a	2ff
.	.	.	.	2dd
.	.	.	2r	2ff
.	.	4c	2a	4ee
.	.	4B	.	4dd
=5	=5	=5	=5	=5
0r	0r	4A	2cc	1ee
.	.	4B	.	.
.	.	4c	2a	.
.	.	4d	.	.
.	.	2e	2.cc	2ee
.	.	[2f	.	2a
.	.	.	4b-	.
=6	=6	=6	=6	=6
0r	1r	4f]	4a	2cc
.	.	4e	4g	.
.	.	2.a	2f	2a
.	[1A	.	2e	2cc
.	.	4g	.	.
.	.	2f	[2d	2dd
=7	=7	=7	=7	=7
1r	1A]	2e	2d]	1ee
.	.	2.a	2c#	.
[1D	1d	.	4d	2ff
.	.	4g	4e	.
.	.	4f	4f	2dd
.	.	4e	4g	.
=8	=8	=8	=8	=8
1D]	2r	4d	2a	1ff
.	.	4c#	.	.
.	2A	2d	1a	.
1A	2c	1e	.	1ee
.	2A	.	[2cc	.
=9	=9	=9	=9	=9
2r	2.c	0A	2cc]	1r
2A	.	.	1a	.
.	4d	.	.	.
2c	2e	.	.	[1a
2A	2f	.	4cc	.
.	.	.	4b-	.
=10	=10	=10	=10	=10
2c	2e	2r	4a	1a]
.	.	.	4g	.
2d	1a	2d	4f	.
.	.	.	4e	.
1B-	.	2f	1d	1dd
.	2g	[2d	.	.
=11	=11	=11	=11	=11
2.A	1a	4d]	2r	2r
.	.	8c	.	.
.	.	8B	.	.
.	.	2c#	1a	2ee
4G	.	.	.	.
2F	1r	2d	.	2ff
2G	.	[2d	2b-	2dd
=12	=12	=12	=12	=12
1D	0A	2d]	[0a	2.ff
.	.	1f	.	.
.	.	.	.	4ee
1r	.	.	.	4cc
.	.	.	.	4dd
.	.	2e	.	[2ee
=13	=13	=13	=13	=13
0D	1d	0f	1a]	2ee]
.	.	.	.	4dd
.	.	.	.	4cc#
.	2r	.	1a	1dd
.	[2A	.	.	.
=14	=14	=14	=14	=14
2A	4A]	1e	2cc	[0ee
.	4B	.	.	.
2A	4c	.	2.a	.
.	4d	.	.	.
2c	1e	2r	.	.
.	.	.	4g	.
[2A	.	2e	2a	.
=15	=15	=15	=15	=15
4A]	4A	2.c	2e	0ee]
4G#	4B	.	.	.
2A	4c	.	1a	.
.	4A	4d	.	.
1E	1B	[1e	.	.
.	.	.	2g#	.
=16	=16	=16	=16	=16
1A	2c	2e]	1a	2r
.	2A	2a	.	2cc
1r	2B	2g	1r	2dd
.	2c	2e	.	2ee
=17	=17	=17	=17	=17
2r	1d	2.f	2r	2a
2d	.	.	2f	2ff
.	.	4d	.	.
2c	1r	2e	2g	2ee
2A	.	[2f	2a	2cc
=18	=18	=18	=18	=18
1B-	1r	2f]	4d	1dd
.	.	.	4e	.
.	.	2d	4f	.
.	.	.	4g	.
1A	2r	2e	4a	2cc
.	.	.	4b	.
.	2c	[2a	2cc	2ee
=19	=19	=19	=19	=19
1r	2d	2a]	1b	2dd
.	2e	2g	.	2b
2r	1A	2e	2r	2.cc
2F	.	2f	2a	.
.	.	.	.	4a
=20	=20	=20	=20	=20
2G	1r	1e	2g	2b
2A	.	.	2e	2cc#
1D	2r	2r	4f	4dd
.	.	.	4g	4ee
.	2f	2d	4a	4ff
.	.	.	4b	4dd
=21	=21	=21	=21	=21
1r	2g	2c	1cc	2ee
.	2a	2A	.	2.ff
2r	2d	2B-	2f	.
.	.	.	.	4ee
2F	2f	2A	2a	[2dd
=22	=22	=22	=22	=22
2G	1e	2r	2g	2dd]
2A	.	2.a	2e	2cc#
2D	2d	.	1f	2dd
.	.	4g	.	.
2d	2f	2f	.	2a
=23	=23	=23	=23	=23
2c	2g	2e	2r	1cc
2A	2a	1f	2c	.
1B-	1d	.	2f	1dd
.	.	4e	2g	.
.	.	4d	.	.
=24	=24	=24	=24	=24
0A	1r	1e	2a	2cc
.	.	.	2.cc	2.ee
.	2.e	1r	.	.
.	.	.	4b	4dd
.	.	.	2a	2cc
.	4e	.	.	.
=25	=25	=25	=25	=25
0r	2e	1r	2g#	2b
.	2f	.	1a	2a
.	2d	2r	.	1b
.	4e	[2e	2g#	.
.	4d	.	.	.
=26	=26	=26	=26	=26
2.A	4c	4e]	1a	1a
.	4A	4e	.	.
.	1a	2e	.	.
4A	.	.	.	.
2A	.	2f	1r	1r
2B-	2f	2d	.	.
=27	=27	=27	=27	=27
2G	2g	1e	1r	2.ee
1A	4c	.	.	.
.	4d	.	.	4ee
.	4e	1A	2.a	2ee
.	4c	.	.	.
2D	2d	.	.	[2ff
.	.	.	4a	.
=28	=28	=28	=28	=28
2F	2A	1d	2a	2ff]
2G	2.d	.	2b-	2dd
1E	.	2r	1g	2ee
.	4c#	.	.	.
.	4c#	2e	.	2gg
.	4B	.	.	.
=29	=29	=29	=29	=29
0D	1d	2.f	1.a	2.ff
.	.	4g	.	4ee
.	2.A	1a	.	2dd
.	.	.	2d	[2ff
.	4A	.	.	.
=30	=30	=30	=30	=30
0r	2A	0r	2.f	4ff]
.	.	.	.	4ee
.	2B-	.	.	1dd
.	.	.	4g	.
.	2G	.	1e	.
.	[2A	.	.	4cc
.	.	.	.	4b
=31	=31	=31	=31	=31
0r	4A]	2.e	2r	4cc
.	4B	.	.	4dd
.	1c	.	2A	2.ee
.	.	4e	.	.
.	.	2e	2A	.
.	.	.	.	4dd
.	2A	[2f	[2a	4cc
.	.	.	.	4b
=32	=32	=32	=32	=32
0r	2d	2f]	4a]	2a
.	.	.	8g	.
.	.	.	8f	.
.	2B-	2d	2g	1dd
.	1A	2e	1a	.
.	.	2f	.	[2cc
=33	=33	=33	=33	=33
2r	0r	2.g	1e	2cc]
2.E	.	.	.	4b
.	.	4f	.	4a
.	.	2.e	1g	4b
4E	.	.	.	4cc
2E	.	.	.	[2b
.	.	4d	.	.
=34	=34	=34	=34	=34
2F	1r	2c	1f	4b]
.	.	.	.	4a
2D	.	2d	.	1a
1E	2r	1B	1e	.
.	[2e	.	.	2g#
=35	=35	=35	=35	=35
1A	4e]	1c#	2r	1a
.	4e	.	.	.
.	2e	.	2.a	.
2D	1f	1d	.	1r
.	.	.	4a	.
2d	.	.	2a	.
=36	=36	=36	=36	=36
2G	2d	2r	2b-	1r
2c	1e	2.c	2g	.
1A	.	.	2a	2.ee
.	.	4A	.	.
.	2A	2a	[2cc	.
.	.	.	.	4ee
=37	=37	=37	=37	=37
0r	2c	2g	4cc]	2ee
.	.	.	4b-	.
.	2d	4f	1a	1ff
.	.	4e	.	.
.	1B-	1d	.	.
.	.	.	2g	2dd
=38	=38	=38	=38	=38
2r	1A	2.a	0cc	2ee
2.A	.	.	.	4a
.	.	8g	.	4b
.	.	8f	.	.
.	2.a	2e	.	4cc
4A	.	.	.	4dd
2A	.	2c	.	[2ee
.	4g	.	.	.
=39	=39	=39	=39	=39
2B-	2f	1d	1b-	4ee]
.	.	.	.	4dd
2G	2g	.	.	1dd
2A	1e	2r	1a	.
2A	.	[2A	.	2cc#
=40	=40	=40	=40	=40
1D	[0d	4A]	1f#	[0dd
.	.	4A	.	.
.	.	2A	.	.
[1G	.	1B-	2.g	.
.	.	.	4a	.
=41	=41	=41	=41	=41
2G]	0d]	2G	2b-	0dd]
2F#	.	2A	2a	.
1G	.	1B-	1g	.
=42	=42	=42	=42	=42
[0D	[0d	[0A	[0f#	[0dd
=43	=43	=43	=43	=43
0D]	0d]	0A]	0f#]	0dd]
*-	*-	*-	*-	*-
!!!CDT: 1525/^1526/-1594/2/2
!!!OCY: Italia
!!!AGN: Mass (Parody)
!!!AST: renaissance, vocal
!!!ASW: Motet 1559 (Maillard)
!!!PWK: Masses, Book 4
!!!RNB: Cadence finals: A
!!!YOR: Le Opere Complete, v. 10, p. 79
!!!YOO: Rome, Italy: Fratelli Scalera
!!!END: 1992//
!!!EED: John Miller
!!!YEC: Copyright 2000, John Miller
!!!YEN: United States of America
!!!YEM: Rights to all derivative electronic formats reserved.
!!!YEM: Refer to licensing agreement for further details.
!!!YEM: This file must be accompanied by the licensing agreement.
!!!YEM: A copy of the licensing agreement may be found at http://www.music-cog.ohio-state.edu/HumdrumDatabases/Palestrina/license.txt
!!!EMD: converted to Humdrum by Bret Aarden
